X: 66
T:Gan Ainm
M:4/4
L:1/8
C:Reel
K:G
d3^c d2=cA | =F2cF dFcF | Add^c d3e | fdcA ABcA |!
Add^c d2=cA | =F2cF dFcF | Add^c d3e | fdcA G4 ||!
g3e fdde | fgag fdd2 | g2ag fdde | fdcA BGG2 |!
g3e fdde | fgag fdd2 | fefg a3g | fdcA BGG2 ||
